astro/public/img/icons/web-app.svg

<?xml version="1.0" encoding="UTF-8"?>
<svg width="91px" height="91px" viewBox="0 0 91 91" version="1.1" xmlns="http://www.w3.org/2000/svg" xmlns:xlink="http://www.w3.org/1999/xlink">
    <title>web-app-icon</title>
    <defs>
        <circle id="path-1" cx="42.5" cy="42.5" r="42.5"></circle>
        <filter x="-5.9%" y="-4.7%" width="111.8%" height="111.8%" filterUnits="objectBoundingBox" id="filter-2">
            <feMorphology radius="0.5" operator="dilate" in="SourceAlpha" result="shadowSpreadOuter1"></feMorphology>
            <feOffset dx="0" dy="1" in="shadowSpreadOuter1" result="shadowOffsetOuter1"></feOffset>
            <feGaussianBlur stdDeviation="1" in="shadowOffsetOuter1" result="shadowBlurOuter1"></feGaussianBlur>
            <feColorMatrix values="0 0 0 0 0   0 0 0 0 0   0 0 0 0 0  0 0 0 0.11324369 0" type="matrix" in="shadowBlurOuter1"></feColorMatrix>
        </filter>
        <linearGradient x1="14.8160718%" y1="6.5869887%" x2="88.3220997%" y2="85.2494143%" id="linearGradient-3">
            <stop stop-color="#6366F1" offset="0%"></stop>
            <stop stop-color="#000000" offset="100%"></stop>
        </linearGradient>
    </defs>
    <g id="Docs" stroke="none" stroke-width="1" fill="none" fill-rule="evenodd">
        <g id="docs-landing-page" transform="translate(-479.000000, -386.000000)">
            <g id="web-app-icon" transform="translate(482.000000, 388.000000)">
                <g id="Oval-Copy-2">
                    <use fill="black" fill-opacity="1" filter="url(#filter-2)" xlink:href="#path-1"></use>
                    <use fill="#FFFFFF" fill-rule="evenodd" xlink:href="#path-1"></use>
                </g>
                <g id="globe" transform="translate(12.000000, 12.000000)" fill="url(#linearGradient-3)" fill-rule="nonzero">
                    <path d="M56.7966333,15.1049353 C47.6882125,-1.01769164 25.4068829,-4.95059473 11.306188,6.79639304 C10.5871021,7.49153004 9.41135542,8.03564025 9.39275837,9.1590313 C9.39069203,10.0155394 10.0829155,10.7127452 10.9383797,10.7148141 C11.3289177,10.7127452 11.7049913,10.5637873 11.990146,10.2948355 C15.2735582,7.2494734 19.3442453,5.07303256 23.5347801,3.97653669 C20.8547388,7.31153921 18.7574051,12.5229979 17.5940565,18.8702607 C11.9364212,17.5627411 8.24594042,15.6904227 6.43582777,14.4470378 C5.84072224,14.0808495 4.97079367,14.1573973 4.50586747,14.7139207 C-8.03474177,34.4074002 7.19830673,61.358441 30.5231374,60.9963905 C53.8686314,61.2467226 68.7008102,34.8501363 56.7966333,15.1049353 Z M53.3045209,15.2580309 C51.2960398,16.4083172 47.9403058,17.8254863 43.4522183,18.8681918 C42.2888696,12.5126536 40.1853369,7.29498833 37.4990966,3.95998581 C43.8427563,5.52818178 49.8351384,9.8852012 53.3045209,15.2580309 Z M30.5231374,3.0683071 C34.383058,3.0683071 38.5735927,9.44246513 40.4126341,19.4764367 C34.7157385,20.5543128 26.3284699,20.5543128 20.6315743,19.4764367 C22.472682,9.44039627 26.6632168,3.0683071 30.5231374,3.0683071 L30.5231374,3.0683071 Z M20.1687144,22.5507629 C26.1631628,23.6679473 34.8831119,23.6679473 40.8775603,22.5507629 C41.5325897,27.7767035 41.5966462,33.7557093 40.7783761,39.1057815 C34.0441784,40.3388222 26.9876319,40.340891 20.251368,39.1078504 C19.5219504,34.070176 19.488889,27.6401588 20.1687144,22.5507629 L20.1687144,22.5507629 Z M6.20853052,17.9578934 C8.53316149,19.2881704 12.2360403,20.8439533 17.1167322,21.9528623 C16.4245088,27.1063928 16.3997127,33.2322877 17.0485431,38.4168511 C12.2649691,37.2479452 7.64256954,35.445968 3.30325838,33.035746 C2.82386781,27.9794518 3.74338851,22.7597177 6.20853052,17.9578934 Z M3.93555801,36.8776192 C8.26247113,39.0519912 12.8270132,40.6657021 17.53,41.7084076 C18.6726852,48.1963529 20.782417,53.5360809 23.497586,56.9393558 C13.8911776,54.584993 5.96883523,46.139906 3.93555801,36.8776192 L3.93555801,36.8776192 Z M30.2937738,57.8620674 C26.6115583,57.6241485 22.6855149,51.6782445 20.8072131,42.3373411 C27.1818678,43.3945286 33.8086158,43.3945286 40.1832705,42.3394099 C39.6935483,44.6875662 39.0984427,47.0129649 38.2967034,49.2825045 C37.9888189,50.0831533 38.3876223,50.9810386 39.185229,51.2872299 C39.9828357,51.5934212 40.881693,51.1962001 41.1895775,50.3976201 C42.193818,47.5632817 42.9335673,44.6523955 43.4790807,41.7063387 C48.2213279,40.6532889 52.8271967,39.0209583 57.1871713,36.8176223 C54.5050637,49.1480286 42.3735895,58.2489442 30.2937738,57.8620674 L30.2937738,57.8620674 Z M43.9770683,38.4147823 C44.6961541,33.0585034 44.6031689,27.1850095 43.9274762,21.9528623 C48.8412295,20.8377467 52.5585727,19.2674818 54.879071,17.9330671 C57.2470951,22.5569694 58.2699327,27.7829101 57.7905421,32.9964376 C53.4326339,35.4273482 48.7854383,37.2396697 43.9770683,38.4147823 Z" id="Shape"></path>
                </g>
            </g>
        </g>
    </g>
</svg>

<svg xmlns="http://www.w3.org/2000/svg" xmlns:xlink="http://www.w3.org/1999/xlink" width="91" height="91"><defs><linearGradient id="c" x1="14.816%" x2="88.322%" y1="6.587%" y2="85.249%"><stop offset="0%" stop-color="#6366F1"/><stop offset="100%"/></linearGradient><filter id="b" width="111.8%" height="111.8%" x="-5.9%" y="-4.7%" filterUnits="objectBoundingBox"><feMorphology in="SourceAlpha" operator="dilate" radius=".5" result="shadowSpreadOuter1"/><feOffset dy="1" in="shadowSpreadOuter1" result="shadowOffsetOuter1"/><feGaussianBlur in="shadowOffsetOuter1" result="shadowBlurOuter1" stdDeviation="1"/><feColorMatrix in="shadowBlurOuter1" values="0 0 0 0 0 0 0 0 0 0 0 0 0 0 0 0 0 0 0.11324369 0"/></filter><circle id="a" cx="42.5" cy="42.5" r="42.5"/></defs><g fill="none" fill-rule="evenodd"><g transform="translate(3 2)"><use xlink:href="#a" fill="#000" filter="url(#b)"/><use xlink:href="#a" fill="#FFF"/></g><path fill="url(#c)" fill-rule="nonzero" d="M56.797 15.105c-9.109-16.123-31.39-20.056-45.49-8.309-.72.696-1.896 1.24-1.914 2.363a1.551 1.551 0 0 0 1.545 1.556c.39-.002.767-.151 1.052-.42 3.284-3.046 7.354-5.222 11.545-6.318-2.68 3.335-4.778 8.546-5.94 14.893-5.659-1.307-9.35-3.18-11.16-4.423-.594-.366-1.464-.29-1.93.267-12.54 19.693 2.693 46.644 26.018 46.282 23.346.25 38.178-26.146 26.274-45.891Zm-3.492.153c-2.009 1.15-5.365 2.567-9.853 3.61C42.29 12.513 40.185 7.295 37.5 3.96c6.344 1.568 12.336 5.925 15.806 11.298ZM30.523 3.068c3.86 0 8.05 6.374 9.89 16.408-5.697 1.078-14.085 1.078-19.781 0 1.84-10.036 6.031-16.408 9.891-16.408ZM20.17 22.551c5.994 1.117 14.714 1.117 20.709 0 .655 5.226.719 11.205-.1 16.555a57.416 57.416 0 0 1-20.527.002c-.729-5.038-.762-11.468-.082-16.557ZM6.21 17.958c2.324 1.33 6.027 2.886 10.908 3.995-.692 5.153-.717 11.28-.068 16.464a55.36 55.36 0 0 1-13.746-5.381A27.283 27.283 0 0 1 6.21 17.958Zm-2.273 18.92a58.417 58.417 0 0 0 13.594 4.83c1.143 6.488 3.252 11.828 5.968 15.231-9.607-2.354-17.53-10.8-19.562-20.061Zm26.358 20.984c-3.682-.238-7.608-6.184-9.487-15.525a59.641 59.641 0 0 0 19.376.002c-.49 2.349-1.085 4.674-1.886 6.944a1.55 1.55 0 1 0 2.893 1.115c1.004-2.835 1.744-5.746 2.29-8.692a58.488 58.488 0 0 0 13.707-4.888c-2.682 12.33-14.813 21.43-26.893 21.044Zm13.683-19.447c.72-5.356.626-11.23-.05-16.462 4.914-1.115 8.632-2.686 10.952-4.02a27.53 27.53 0 0 1 2.912 15.063 55.283 55.283 0 0 1-13.814 5.419Z" transform="translate(15 14)"/></g></svg>
